images_sukapura_svg/cmd/32/insertpagebreak.svg

<svg viewBox="0 0 32 32" xmlns="http://www.w3.org/2000/svg" xmlns:xlink="http://www.w3.org/1999/xlink"><linearGradient id="a" gradientUnits="userSpaceOnUse" x1="15" x2="15" y1="15" y2="3"><stop offset="0" stop-color="#98989d"/><stop offset=".75" stop-color="#98989d"/><stop offset=".9375" stop-color="#9b9b9b" stop-opacity=".254902"/><stop offset="1" stop-color="#9b9b9b" stop-opacity="0"/></linearGradient><linearGradient id="b" gradientUnits="userSpaceOnUse" x1="15" x2="15" y1="14" y2="3"><stop offset="0" stop-color="#fff"/><stop offset=".85714287" stop-color="#fff"/><stop offset=".9285714" stop-color="#fff" stop-opacity=".247059"/><stop offset="1" stop-color="#fff" stop-opacity="0"/></linearGradient><g transform="matrix(1 0 0 -1 -1 32)"><path d="m6.9667969 15c-.5352205 0-.9667969-.431576-.9667969-.966797v-11.033203h1v11h20v-11h1v11.033203c0 .535221-.431576.966797-.966797.966797z" fill="url(#a)"/><path d="m7 14v-11h20v11z" fill="url(#b)"/></g><g transform="translate(-1)"><path d="m6.9667969 15c-.5352205 0-.9667969-.431576-.9667969-.966797v-11.033203h1v11h20v-11h1v11.033203c0 .535221-.431576.966797-.966797.966797z" fill="url(#a)"/><path d="m7 14v-11h20v11z" fill="url(#b)"/></g></svg>

<?xml version="1.0" encoding="UTF-8" standalone="no"?>
<svg
   xmlns:dc="http://purl.org/dc/elements/1.1/"
   xmlns:cc="http://creativecommons.org/ns#"
   xmlns:rdf="http://www.w3.org/1999/02/22-rdf-syntax-ns#"
   xmlns:svg="http://www.w3.org/2000/svg"
   xmlns="http://www.w3.org/2000/svg"
   xmlns:xlink="http://www.w3.org/1999/xlink"
   xmlns:sodipodi="http://sodipodi.sourceforge.net/DTD/sodipodi-0.dtd"
   xmlns:inkscape="http://www.inkscape.org/namespaces/inkscape"
   viewBox="0 0 32 32"
   version="1.1"
   id="svg20"
   sodipodi:docname="insertpagebreak.svg"
   inkscape:version="0.92.3 (unknown)">
  <metadata
     id="metadata26">
    <rdf:RDF>
      <cc:Work
         rdf:about="">
        <dc:format>image/svg+xml</dc:format>
        <dc:type
           rdf:resource="http://purl.org/dc/dcmitype/StillImage" />
        <dc:title></dc:title>
      </cc:Work>
    </rdf:RDF>
  </metadata>
  <defs
     id="defs24">
    <linearGradient
       inkscape:collect="always"
       id="linearGradient907">
      <stop
         style="stop-color:#98989d;stop-opacity:1"
         offset="0"
         id="stop903" />
      <stop
         id="stop911"
         offset="0.75"
         style="stop-color:#98989d;stop-opacity:1" />
      <stop
         style="stop-color:#9b9b9b;stop-opacity:0.25490198"
         offset="0.9375"
         id="stop913" />
      <stop
         style="stop-color:#9b9b9b;stop-opacity:0"
         offset="1"
         id="stop905" />
    </linearGradient>
    <linearGradient
       inkscape:collect="always"
       id="linearGradient919">
      <stop
         style="stop-color:#ffffff;stop-opacity:1;"
         offset="0"
         id="stop915" />
      <stop
         id="stop923"
         offset="0.85714287"
         style="stop-color:#ffffff;stop-opacity:1" />
      <stop
         style="stop-color:#ffffff;stop-opacity:0.24705882;"
         offset="0.9285714"
         id="stop925" />
      <stop
         style="stop-color:#ffffff;stop-opacity:0;"
         offset="1"
         id="stop917" />
    </linearGradient>
    <linearGradient
       inkscape:collect="always"
       xlink:href="#linearGradient907"
       id="linearGradient875"
       x1="15"
       y1="15"
       x2="15"
       y2="3"
       gradientUnits="userSpaceOnUse" />
    <linearGradient
       inkscape:collect="always"
       xlink:href="#linearGradient919"
       id="linearGradient883"
       x1="15"
       y1="14"
       x2="15"
       y2="3"
       gradientUnits="userSpaceOnUse" />
    <linearGradient
       inkscape:collect="always"
       xlink:href="#linearGradient907"
       id="linearGradient895"
       gradientUnits="userSpaceOnUse"
       x1="15"
       y1="15"
       x2="15"
       y2="3" />
    <linearGradient
       inkscape:collect="always"
       xlink:href="#linearGradient919"
       id="linearGradient897"
       gradientUnits="userSpaceOnUse"
       x1="15"
       y1="14"
       x2="15"
       y2="3" />
  </defs>
  <sodipodi:namedview
     pagecolor="#ffffff"
     bordercolor="#666666"
     borderopacity="1"
     objecttolerance="10"
     gridtolerance="10"
     guidetolerance="10"
     inkscape:pageopacity="0"
     inkscape:pageshadow="2"
     inkscape:window-width="1366"
     inkscape:window-height="706"
     id="namedview22"
     showgrid="true"
     inkscape:zoom="14.75"
     inkscape:cx="13.33372"
     inkscape:cy="11.980977"
     inkscape:window-x="0"
     inkscape:window-y="0"
     inkscape:window-maximized="1"
     inkscape:current-layer="svg20">
    <inkscape:grid
       type="xygrid"
       id="grid833" />
  </sodipodi:namedview>
  <g
     id="g893"
     transform="matrix(1,0,0,-1,-1,32)">
    <path
       d="M 6.9667969,15 C 6.4315764,15 6,14.568424 6,14.033203 V 3 H 7 V 14 H 27 V 3 h 1 V 14.033203 C 28,14.568424 27.568424,15 27.033203,15 Z"
       id="path889"
       inkscape:connector-curvature="0"
       style="fill:url(#linearGradient895);fill-opacity:1"
       sodipodi:nodetypes="ssccccccsss" />
    <path
       d="M 7,14 V 3 h 20 v 11 z"
       id="path891"
       inkscape:connector-curvature="0"
       style="fill:url(#linearGradient897);fill-opacity:1"
       sodipodi:nodetypes="ccccc" />
  </g>
  <g
     id="g887"
     transform="translate(-1)">
    <path
       sodipodi:nodetypes="ssccccccsss"
       style="fill:url(#linearGradient875);fill-opacity:1"
       inkscape:connector-curvature="0"
       id="path16"
       d="M 6.9667969,15 C 6.4315764,15 6,14.568424 6,14.033203 V 3 H 7 V 14 H 27 V 3 h 1 V 14.033203 C 28,14.568424 27.568424,15 27.033203,15 Z" />
    <path
       sodipodi:nodetypes="ccccc"
       style="fill:url(#linearGradient883);fill-opacity:1"
       inkscape:connector-curvature="0"
       id="path18"
       d="M 7,14 V 3 h 20 v 11 z" />
  </g>
</svg>
